X:158
T: AN EINEM FLUSS DER RAUSCHEND SCHOSS
N: B0647B
O: Europa, Mitteleuropa, Deutschland, Brandenburg; Schlesien; Thueringen
R: Moral - Lied, Ballade
M: 2/4
L: 1/16
K: C
G,2 | C3CDCB,A, | G,3A,G,2
F,2 | E,G,G,CC3E, | E,2D,2z2
C2 | B,3DC2E2 | DCDFE2
G,2 | A,FED2E2D2 | C4z2

